cssgg/bot.svg

<svg
  width="24"
  height="24"
  viewBox="0 0 24 24"
  fill="none"
  xmlns="http://www.w3.org/2000/svg"
>
  <path d="M14.1254 13H10.1254V15H14.1254V13Z" fill="currentColor" />
  <path
    fill-rule="evenodd"
    clip-rule="evenodd"
    d="M8.12537 13C9.22994 13 10.1254 12.1046 10.1254 11C10.1254 9.89543 9.22994 9 8.12537 9C7.0208 9 6.12537 9.89543 6.12537 11C6.12537 12.1046 7.0208 13 8.12537 13ZM8.12537 11.5C8.40151 11.5 8.62537 11.2761 8.62537 11C8.62537 10.7239 8.40151 10.5 8.12537 10.5C7.84922 10.5 7.62537 10.7239 7.62537 11C7.62537 11.2761 7.84922 11.5 8.12537 11.5Z"
    fill="currentColor"
  />
  <path
    fill-rule="evenodd"
    clip-rule="evenodd"
    d="M18.1254 11C18.1254 12.1046 17.2299 13 16.1254 13C15.0208 13 14.1254 12.1046 14.1254 11C14.1254 9.89543 15.0208 9 16.1254 9C17.2299 9 18.1254 9.89543 18.1254 11ZM16.6254 11C16.6254 11.2761 16.4015 11.5 16.1254 11.5C15.8492 11.5 15.6254 11.2761 15.6254 11C15.6254 10.7239 15.8492 10.5 16.1254 10.5C16.4015 10.5 16.6254 10.7239 16.6254 11Z"
    fill="currentColor"
  />
  <path
    fill-rule="evenodd"
    clip-rule="evenodd"
    d="M2.74884 14.6663C3.73056 16.6421 5.76939 18 8.12537 18H16.1254C18.5654 18 20.6652 16.5435 21.6029 14.4525C22.3722 13.9093 22.8746 13.0133 22.8746 12C22.8746 10.9867 22.3722 10.0907 21.6029 9.54753C20.6652 7.45651 18.5654 6 16.1254 6H8.12537C5.76939 6 3.73056 7.3579 2.74884 9.33375C1.78448 9.83263 1.12537 10.8393 1.12537 12C1.12537 13.1607 1.78448 14.1674 2.74884 14.6663ZM8.12537 8H16.1254C17.5088 8 18.7282 8.70234 19.4465 9.76991C19.7227 10.4593 19.8746 11.2119 19.8746 12C19.8746 12.7881 19.7227 13.5407 19.4465 14.2301C18.7282 15.2977 17.5088 16 16.1254 16H8.12537C5.91623 16 4.12537 14.2091 4.12537 12C4.12537 9.79086 5.91623 8 8.12537 8Z"
    fill="currentColor"
  />
</svg>

<svg viewBox="0 0 24 24" xmlns="http://www.w3.org/2000/svg"><g><path d="M14.12 13h-4v2h4v-2Z"/><g fill-rule="evenodd"><path d="M8.12 13c1.1 0 2-.9 2-2 0-1.11-.9-2-2.01-2 -1.11 0-2 .89-2 2 0 1.1.89 2 2 2Zm0-1.5c.27 0 .5-.23.5-.5 0-.28-.23-.5-.5-.5 -.28 0-.5.22-.5.5 0 .27.22.5.5.5Z"/><path d="M18.12 11c0 1.1-.9 2-2 2 -1.11 0-2-.9-2-2 0-1.11.89-2 2-2 1.1 0 2 .89 2 2Zm-1.5 0c0 .27-.23.5-.5.5 -.28 0-.5-.23-.5-.5 0-.28.22-.5.5-.5 .27 0 .5.22.5.5Z"/><path d="M2.74 14.66c.98 1.97 3.02 3.33 5.37 3.33h8c2.44 0 4.53-1.46 5.47-3.55 .76-.55 1.27-1.44 1.27-2.46s-.51-1.91-1.28-2.46c-.94-2.1-3.04-3.55-5.48-3.55H8.08c-2.36 0-4.4 1.35-5.38 3.33 -.97.49-1.63 1.5-1.63 2.66 0 1.16.65 2.16 1.62 2.66Zm5.37-6.67h8c1.38 0 2.6.7 3.32 1.76 .27.68.42 1.44.42 2.23 0 .78-.16 1.54-.43 2.23 -.72 1.06-1.94 1.76-3.33 1.76H8.08c-2.21 0-4-1.8-4-4 0-2.21 1.79-4 4-4Z"/></g></g></svg>
